X:44
T:Why Did It Have To Be Cats?
F:Cats
R:slip jig
C:Simon Dew
M:9/8
L:1/8
Q:3/8=130
K:D
P:A
"D"ded cBA B2A|"D/F#"ded cBA B2A|
"G"G2D GAB dcB| [1 "A7"c2A cde gfe:| [2 "A7"cBA cde "D"d3 |
P:B
|:"Em7"B2G- G2d- d2B|"A7"c2A cde dcA|
  "Em7"B2G- G2d- d2B| [1 "A7"c2A cde A3 :| [2 "A7"cBA cde "D"d3 |]

